X: 49
T: John Brown's Little Indian
O: Old Song
%R: air, march
B: "The Everyday Song Book", 1927
F: http://www.library.pitt.edu/happybirthday/pdf/The_Everyday_Song_Book.pdf
Z: 2017 John Chambers <jc:trillian.mit.edu>
M: 4/4
L: 1/8
K: A
% - - - - - - - - - - - - - - -
[| A4 A4 | c c e e c2 A2 | B4 B4 | G G B B
w: John Brown had a lit-tle In-dian; John Brown had a lit-tle
%
G2 E2 | A4 A4 | c c e e c2 A2 | B2 B B |
w: In-dian; John Brown had a lit-tle In-dian, one lit-tle
%
E2 G2 | A4 z4 |: A2 A A A2 AA | c2 e e c2 A2 |
w: In-dian boy. One lit-tle, two  lit-tle, three lit-tle In-dians,
w: ~ ~  ~     | Ten lit-tle, nine lit-tle, eight lit-tle In-dians,
%
B2 B B B2 B B | G2 B B G2 E2 | A2 A A
w: Four  lit-tle, five lit-tle, six  lit-tle In-dians; Sev'n lit-tle
w: Sev'n lit-tle, six  lit-tle, five lit-tle In-dians; Four  lit-tle
%
A2 A A | c2 e e c2 A2 | B2 B B E2 G2 | A4 z4 :|
w: eight lit-tle, nine lit-tle In-dians, Ten lit-tle In-dian boys.
w: three lit-tle, two  lit-tle In-dians, One lit-tle In-dian boy.
% - - - - - - - - - - - - - - -

%%sep 1 1 500
%%sep 1 1 500

